static/img/kroki/2932cafc8a8fae2b2ea3918be870f714.svg

<?xml version="1.0" encoding="us-ascii" standalone="no"?><svg xmlns="http://www.w3.org/2000/svg" xmlns:xlink="http://www.w3.org/1999/xlink" contentStyleType="text/css" height="919px" preserveAspectRatio="none" style="width:395px;height:919px;" version="1.1" viewBox="0 0 395 919" width="395px" zoomAndPan="magnify"><defs/><g><!--class azure_compute_operation_value--><g id="elem_azure_compute_operation_value"><rect codeLine="22" fill="#3D176E" height="100.3828" id="azure_compute_operation_value" rx="2.5" ry="2.5" style="stroke:#000D19;stroke-width:0.5;" width="364" x="15.5" y="599.55"/><ellipse cx="53" cy="619.4445" fill="#ADD1B2" rx="11" ry="11" style="stroke:#181818;stroke-width:1.0;"/><path d="M55.9688,625.0852 Q55.3906,625.382 54.75,625.5227 Q54.1094,625.6789 53.4063,625.6789 Q50.9063,625.6789 49.5781,624.0383 Q48.2656,622.382 48.2656,619.257 Q48.2656,616.132 49.5781,614.4758 Q50.9063,612.8195 53.4063,612.8195 Q54.1094,612.8195 54.75,612.9758 Q55.4063,613.132 55.9688,613.4289 L55.9688,616.1477 Q55.3438,615.5695 54.75,615.3039 Q54.1563,615.0227 53.5313,615.0227 Q52.1875,615.0227 51.5,616.1008 Q50.8125,617.1633 50.8125,619.257 Q50.8125,621.3508 51.5,622.4289 Q52.1875,623.4914 53.5313,623.4914 Q54.1563,623.4914 54.75,623.2258 Q55.3438,622.9445 55.9688,622.3664 L55.9688,625.0852 Z " fill="#000000"/><text fill="#D9B8FF" font-family="Helvetica" font-size="17" lengthAdjust="spacing" textLength="272" x="77" y="625.3298">azure_compute_operation_value</text><line style="stroke:#000D19;stroke-width:0.5;" x1="16.5" x2="378.5" y1="639.3391" y2="639.3391"/><text fill="#D9B8FF" font-family="sans-serif" font-size="14" font-weight="bold" lengthAdjust="spacing" textLength="55" x="26.5" y="661.3342">display</text><text fill="#D9B8FF" font-family="sans-serif" font-size="14" lengthAdjust="spacing" textLength="287" x="81.5" y="661.3342">: azure_compute_operation_value_display</text><text fill="#D9B8FF" font-family="sans-serif" font-size="14" font-weight="bold" lengthAdjust="spacing" textLength="45" x="26.5" y="687.6311">origin</text><text fill="#D9B8FF" font-family="sans-serif" font-size="14" lengthAdjust="spacing" textLength="48" x="71.5" y="687.6311">: string</text></g><!--class azure_compute_operation_value_display--><g id="elem_azure_compute_operation_value_display"><rect codeLine="26" fill="#3D176E" height="152.9766" id="azure_compute_operation_value_display" rx="2.5" ry="2.5" style="stroke:#000D19;stroke-width:0.5;" width="381" x="7" y="759.93"/><ellipse cx="22" cy="779.8245" fill="#ADD1B2" rx="11" ry="11" style="stroke:#181818;stroke-width:1.0;"/><path d="M24.9688,785.4652 Q24.3906,785.762 23.75,785.9027 Q23.1094,786.0589 22.4063,786.0589 Q19.9063,786.0589 18.5781,784.4183 Q17.2656,782.762 17.2656,779.637 Q17.2656,776.512 18.5781,774.8558 Q19.9063,773.1995 22.4063,773.1995 Q23.1094,773.1995 23.75,773.3558 Q24.4063,773.512 24.9688,773.8089 L24.9688,776.5277 Q24.3438,775.9495 23.75,775.6839 Q23.1563,775.4027 22.5313,775.4027 Q21.1875,775.4027 20.5,776.4808 Q19.8125,777.5433 19.8125,779.637 Q19.8125,781.7308 20.5,782.8089 Q21.1875,783.8714 22.5313,783.8714 Q23.1563,783.8714 23.75,783.6058 Q24.3438,783.3245 24.9688,782.7464 L24.9688,785.4652 Z " fill="#000000"/><text fill="#D9B8FF" font-family="Helvetica" font-size="17" lengthAdjust="spacing" textLength="339" x="41" y="785.7098">azure_compute_operation_value_display</text><line style="stroke:#000D19;stroke-width:0.5;" x1="8" x2="387" y1="799.7191" y2="799.7191"/><text fill="#D9B8FF" font-family="sans-serif" font-size="14" font-weight="bold" lengthAdjust="spacing" textLength="89" x="18" y="821.7142">description</text><text fill="#D9B8FF" font-family="sans-serif" font-size="14" lengthAdjust="spacing" textLength="48" x="107" y="821.7142">: string</text><text fill="#D9B8FF" font-family="sans-serif" font-size="14" font-weight="bold" lengthAdjust="spacing" textLength="76" x="18" y="848.0111">operation</text><text fill="#D9B8FF" font-family="sans-serif" font-size="14" lengthAdjust="spacing" textLength="48" x="94" y="848.0111">: string</text><text fill="#D9B8FF" font-family="sans-serif" font-size="14" font-weight="bold" lengthAdjust="spacing" textLength="67" x="18" y="874.3079">provider</text><text fill="#D9B8FF" font-family="sans-serif" font-size="14" lengthAdjust="spacing" textLength="48" x="85" y="874.3079">: string</text><text fill="#D9B8FF" font-family="sans-serif" font-size="14" font-weight="bold" lengthAdjust="spacing" textLength="72" x="18" y="900.6048">resource</text><text fill="#D9B8FF" font-family="sans-serif" font-size="14" lengthAdjust="spacing" textLength="48" x="90" y="900.6048">: string</text></g><!--class azure_resource--><g id="elem_azure_resource"><rect codeLine="32" fill="#3D176E" height="39.7891" id="azure_resource" rx="2.5" ry="2.5" style="stroke:#000D19;stroke-width:0.5;" width="168" x="113.5" y="438.76"/><ellipse cx="128.5" cy="458.6545" fill="#ADD1B2" rx="11" ry="11" style="stroke:#181818;stroke-width:1.0;"/><path d="M131.4688,464.2952 Q130.8906,464.592 130.25,464.7327 Q129.6094,464.8889 128.9063,464.8889 Q126.4063,464.8889 125.0781,463.2483 Q123.7656,461.592 123.7656,458.467 Q123.7656,455.342 125.0781,453.6858 Q126.4063,452.0295 128.9063,452.0295 Q129.6094,452.0295 130.25,452.1858 Q130.9063,452.342 131.4688,452.6389 L131.4688,455.3577 Q130.8438,454.7795 130.25,454.5139 Q129.6563,454.2327 129.0313,454.2327 Q127.6875,454.2327 127,455.3108 Q126.3125,456.3733 126.3125,458.467 Q126.3125,460.5608 127,461.6389 Q127.6875,462.7014 129.0313,462.7014 Q129.6563,462.7014 130.25,462.4358 Q130.8438,462.1545 131.4688,461.5764 L131.4688,464.2952 Z " fill="#000000"/><text fill="#D9B8FF" font-family="Helvetica" font-size="17" lengthAdjust="spacing" textLength="126" x="147.5" y="464.5398">azure_resource</text></g><!--class resource--><g id="elem_resource"><rect codeLine="34" fill="#3D176E" height="310.7578" id="resource" rx="2.5" ry="2.5" style="stroke:#000D19;stroke-width:0.5;" width="227" x="84" y="7"/><ellipse cx="152.75" cy="26.8945" fill="#ADD1B2" rx="11" ry="11" style="stroke:#181818;stroke-width:1.0;"/><path d="M155.7188,32.5352 Q155.1406,32.832 154.5,32.9727 Q153.8594,33.1289 153.1563,33.1289 Q150.6563,33.1289 149.3281,31.4883 Q148.0156,29.832 148.0156,26.707 Q148.0156,23.582 149.3281,21.9258 Q150.6563,20.2695 153.1563,20.2695 Q153.8594,20.2695 154.5,20.4258 Q155.1563,20.582 155.7188,20.8789 L155.7188,23.5977 Q155.0938,23.0195 154.5,22.7539 Q153.9063,22.4727 153.2813,22.4727 Q151.9375,22.4727 151.25,23.5508 Q150.5625,24.6133 150.5625,26.707 Q150.5625,28.8008 151.25,29.8789 Q151.9375,30.9414 153.2813,30.9414 Q153.9063,30.9414 154.5,30.6758 Q155.0938,30.3945 155.7188,29.8164 L155.7188,32.5352 Z " fill="#000000"/><text fill="#D9B8FF" font-family="Helvetica" font-size="17" lengthAdjust="spacing" textLength="71" x="178.25" y="32.7798">resource</text><line style="stroke:#000D19;stroke-width:0.5;" x1="85" x2="310" y1="46.7891" y2="46.7891"/><text fill="#D9B8FF" font-family="sans-serif" font-size="14" font-weight="bold" lengthAdjust="spacing" textLength="29" x="95" y="68.7842">age</text><text fill="#D9B8FF" font-family="sans-serif" font-size="14" lengthAdjust="spacing" textLength="66" x="124" y="68.7842">: duration</text><text fill="#D9B8FF" font-family="sans-serif" font-size="14" font-weight="bold" lengthAdjust="spacing" textLength="43" x="95" y="95.0811">atime</text><text fill="#D9B8FF" font-family="sans-serif" font-size="14" lengthAdjust="spacing" textLength="70" x="138" y="95.0811">: datetime</text><text fill="#D9B8FF" font-family="sans-serif" font-size="14" font-weight="bold" lengthAdjust="spacing" textLength="43" x="95" y="121.3779">ctime</text><text fill="#D9B8FF" font-family="sans-serif" font-size="14" lengthAdjust="spacing" textLength="70" x="138" y="121.3779">: datetime</text><text fill="#D9B8FF" font-family="sans-serif" font-size="14" font-weight="bold" lengthAdjust="spacing" textLength="14" x="95" y="147.6748">id</text><text fill="#D9B8FF" font-family="sans-serif" font-size="14" lengthAdjust="spacing" textLength="48" x="109" y="147.6748">: string</text><text fill="#D9B8FF" font-family="sans-serif" font-size="14" font-weight="bold" lengthAdjust="spacing" textLength="33" x="95" y="173.9717">kind</text><text fill="#D9B8FF" font-family="sans-serif" font-size="14" lengthAdjust="spacing" textLength="48" x="128" y="173.9717">: string</text><text fill="#D9B8FF" font-family="sans-serif" font-size="14" font-weight="bold" lengthAdjust="spacing" textLength="90" x="95" y="200.2686">last_access</text><text fill="#D9B8FF" font-family="sans-serif" font-size="14" lengthAdjust="spacing" textLength="66" x="185" y="200.2686">: duration</text><text fill="#D9B8FF" font-family="sans-serif" font-size="14" font-weight="bold" lengthAdjust="spacing" textLength="90" x="95" y="226.5654">last_update</text><text fill="#D9B8FF" font-family="sans-serif" font-size="14" lengthAdjust="spacing" textLength="66" x="185" y="226.5654">: duration</text><text fill="#D9B8FF" font-family="sans-serif" font-size="14" font-weight="bold" lengthAdjust="spacing" textLength="48" x="95" y="252.8623">mtime</text><text fill="#D9B8FF" font-family="sans-serif" font-size="14" lengthAdjust="spacing" textLength="70" x="143" y="252.8623">: datetime</text><text fill="#D9B8FF" font-family="sans-serif" font-size="14" font-weight="bold" lengthAdjust="spacing" textLength="43" x="95" y="279.1592">name</text><text fill="#D9B8FF" font-family="sans-serif" font-size="14" lengthAdjust="spacing" textLength="48" x="138" y="279.1592">: string</text><text fill="#D9B8FF" font-family="sans-serif" font-size="14" font-weight="bold" lengthAdjust="spacing" textLength="34" x="95" y="305.4561">tags</text><text fill="#D9B8FF" font-family="sans-serif" font-size="14" lengthAdjust="spacing" textLength="171" x="129" y="305.4561">: dictionary[string, string]</text></g><!--link azure_compute_operation_value to azure_compute_operation_value_display--><g id="link_azure_compute_operation_value_azure_compute_operation_value_display"><path codeLine="46" d="M197.5,700.23 C197.5,718.5 197.5,733.65 197.5,753.71 " fill="none" id="azure_compute_operation_value-to-azure_compute_operation_value_display" style="stroke:#FFAF37;stroke-width:2.0;"/><polygon fill="#FFAF37" points="197.5,759.71,201.5,750.71,197.5,754.71,193.5,750.71,197.5,759.71" style="stroke:#FFAF37;stroke-width:2.0;"/></g><!--reverse link azure_resource to azure_compute_operation_value--><g id="link_azure_resource_azure_compute_operation_value"><path codeLine="47" d="M197.5,496.83 C197.5,524.81 197.5,559.78 197.5,599.17 " fill="none" id="azure_resource-backto-azure_compute_operation_value" style="stroke:#FFAF37;stroke-width:2.0;"/><polygon fill="none" points="197.5,478.83,191.5,496.83,203.5,496.83,197.5,478.83" style="stroke:#FFAF37;stroke-width:2.0;"/></g><!--reverse link resource to azure_resource--><g id="link_resource_azure_resource"><path codeLine="48" d="M197.5,335.84 C197.5,384.13 197.5,413.37 197.5,438.68 " fill="none" id="resource-backto-azure_resource" style="stroke:#FFAF37;stroke-width:2.0;"/><polygon fill="none" points="197.5,317.84,191.5,335.84,203.5,335.84,197.5,317.84" style="stroke:#FFAF37;stroke-width:2.0;"/></g><!--SRC=[ZPDVQzim5CNVyoa4VJCp92jRcZ46RQ1iBsMiUnl3t4ZNZeZrXoiv9TtstIV5SP7jnEsREUTtxxbNihPI84Db_O4fL1iaDtCxgIqGA7PBP9xMfZR4hieIoklbqBmtshyAF812zXNhFNh9OKZyt4g-q-WSUvzOTy1t5Pb6YxQz9z0kMAXzGgrhSExMUvARncCoZ5XjRifoI0wRNbsBnV8ZZZ130kc4pETpiLWDaLUZ9lT-8HxbCx95UcWFnkDep574aPgSCXB9aAD5E__YZDz12AahzY7HVhGpaKRgwOzR4EOfqYNKBern7WcDFrXSZxR2rOqebsVXRvTW7a-EmND3M72ZRBZrmbWayDBeOWzrW-pFBCk4TBQ6GvPzceQB4nXA3CbAwbZXml-agzc_jwHr3TfKT9oaZMxI9xJkQdgg9RCFhuzw8g4p3N6yE4S7XC3EIAGiW-fOAvesCIfUgbO3Z_4xQFoC9aLlad0jVI5a-G8u3qzra71q6Xjx3Hnr9aU3mbvZ3rNRKV9O1dJurNhlJipliEhqdUVvbpTUzE0KF__DytowT7OMxiJ_]--></g></svg>

<svg xmlns="http://www.w3.org/2000/svg" width="395" height="919" viewBox="0 0 395 919"><rect width="364" height="100.383" x="15.5" y="599.55" fill="#3D176E" rx="2.5" ry="2.5" style="stroke:#000d19;stroke-width:.5"/><circle cx="53" cy="619.444" r="11" fill="#ADD1B2" style="stroke:#181818;stroke-width:1"/><path d="M55.969 625.085q-.578.297-1.219.438-.64.156-1.344.156-2.5 0-3.828-1.64-1.312-1.657-1.312-4.782t1.312-4.781q1.328-1.657 3.828-1.657.703 0 1.344.157.656.156 1.219.453v2.719q-.625-.579-1.219-.844-.594-.281-1.219-.281-1.343 0-2.031 1.078-.687 1.062-.687 3.156t.687 3.172q.688 1.062 2.031 1.062.625 0 1.219-.265.594-.282 1.219-.86z"/><text x="77" y="625.33" fill="#D9B8FF" font-family="Helvetica" font-size="17" textLength="272">azure_compute_operation_value</text><path d="M16.5 639.339h362" style="stroke:#000d19;stroke-width:.5"/><text x="26.5" y="661.334" fill="#D9B8FF" font-family="sans-serif" font-size="14" font-weight="bold" textLength="55">display</text><text x="81.5" y="661.334" fill="#D9B8FF" font-family="sans-serif" font-size="14" textLength="287">: azure_compute_operation_value_display</text><text x="26.5" y="687.631" fill="#D9B8FF" font-family="sans-serif" font-size="14" font-weight="bold" textLength="45">origin</text><text x="71.5" y="687.631" fill="#D9B8FF" font-family="sans-serif" font-size="14" textLength="48">: string</text><rect width="381" height="152.977" x="7" y="759.93" fill="#3D176E" rx="2.5" ry="2.5" style="stroke:#000d19;stroke-width:.5"/><circle cx="22" cy="779.824" r="11" fill="#ADD1B2" style="stroke:#181818;stroke-width:1"/><path d="M24.969 785.465q-.578.297-1.219.438-.64.156-1.344.156-2.5 0-3.828-1.64-1.312-1.657-1.312-4.782t1.312-4.781q1.328-1.657 3.828-1.657.703 0 1.344.157.656.156 1.219.453v2.719q-.625-.579-1.219-.844-.594-.281-1.219-.281-1.343 0-2.031 1.078-.687 1.062-.687 3.156t.687 3.172q.688 1.062 2.031 1.062.625 0 1.219-.265.594-.282 1.219-.86z"/><text x="41" y="785.71" fill="#D9B8FF" font-family="Helvetica" font-size="17" textLength="339">azure_compute_operation_value_display</text><path d="M8 799.719h379" style="stroke:#000d19;stroke-width:.5"/><text x="18" y="821.714" fill="#D9B8FF" font-family="sans-serif" font-size="14" font-weight="bold" textLength="89">description</text><text x="107" y="821.714" fill="#D9B8FF" font-family="sans-serif" font-size="14" textLength="48">: string</text><text x="18" y="848.011" fill="#D9B8FF" font-family="sans-serif" font-size="14" font-weight="bold" textLength="76">operation</text><text x="94" y="848.011" fill="#D9B8FF" font-family="sans-serif" font-size="14" textLength="48">: string</text><text x="18" y="874.308" fill="#D9B8FF" font-family="sans-serif" font-size="14" font-weight="bold" textLength="67">provider</text><text x="85" y="874.308" fill="#D9B8FF" font-family="sans-serif" font-size="14" textLength="48">: string</text><text x="18" y="900.605" fill="#D9B8FF" font-family="sans-serif" font-size="14" font-weight="bold" textLength="72">resource</text><text x="90" y="900.605" fill="#D9B8FF" font-family="sans-serif" font-size="14" textLength="48">: string</text><rect width="168" height="39.789" x="113.5" y="438.76" fill="#3D176E" rx="2.5" ry="2.5" style="stroke:#000d19;stroke-width:.5"/><circle cx="128.5" cy="458.654" r="11" fill="#ADD1B2" style="stroke:#181818;stroke-width:1"/><path d="M131.469 464.295q-.578.297-1.219.438-.64.156-1.344.156-2.5 0-3.828-1.64-1.312-1.657-1.312-4.782t1.312-4.781q1.328-1.656 3.828-1.656.703 0 1.344.156.656.156 1.219.453v2.719q-.625-.579-1.219-.844-.594-.281-1.219-.281-1.344 0-2.031 1.078-.687 1.062-.687 3.156t.687 3.172q.688 1.062 2.031 1.062.625 0 1.219-.265.594-.281 1.219-.86z"/><text x="147.5" y="464.54" fill="#D9B8FF" font-family="Helvetica" font-size="17" textLength="126">azure_resource</text><rect width="227" height="310.758" x="84" y="7" fill="#3D176E" rx="2.5" ry="2.5" style="stroke:#000d19;stroke-width:.5"/><circle cx="152.75" cy="26.895" r="11" fill="#ADD1B2" style="stroke:#181818;stroke-width:1"/><path d="M155.719 32.535q-.578.297-1.219.438-.64.156-1.344.156-2.5 0-3.828-1.64-1.312-1.657-1.312-4.782t1.312-4.781q1.328-1.656 3.828-1.656.703 0 1.344.156.656.156 1.219.453v2.719q-.625-.578-1.219-.844-.594-.281-1.219-.281-1.344 0-2.031 1.078-.687 1.062-.687 3.156t.687 3.172q.688 1.062 2.031 1.062.625 0 1.219-.265.594-.281 1.219-.86z"/><text x="178.25" y="32.78" fill="#D9B8FF" font-family="Helvetica" font-size="17" textLength="71">resource</text><path d="M85 46.789h225" style="stroke:#000d19;stroke-width:.5"/><text x="95" y="68.784" fill="#D9B8FF" font-family="sans-serif" font-size="14" font-weight="bold" textLength="29">age</text><text x="124" y="68.784" fill="#D9B8FF" font-family="sans-serif" font-size="14" textLength="66">: duration</text><text x="95" y="95.081" fill="#D9B8FF" font-family="sans-serif" font-size="14" font-weight="bold" textLength="43">atime</text><text x="138" y="95.081" fill="#D9B8FF" font-family="sans-serif" font-size="14" textLength="70">: datetime</text><text x="95" y="121.378" fill="#D9B8FF" font-family="sans-serif" font-size="14" font-weight="bold" textLength="43">ctime</text><text x="138" y="121.378" fill="#D9B8FF" font-family="sans-serif" font-size="14" textLength="70">: datetime</text><text x="95" y="147.675" fill="#D9B8FF" font-family="sans-serif" font-size="14" font-weight="bold" textLength="14">id</text><text x="109" y="147.675" fill="#D9B8FF" font-family="sans-serif" font-size="14" textLength="48">: string</text><text x="95" y="173.972" fill="#D9B8FF" font-family="sans-serif" font-size="14" font-weight="bold" textLength="33">kind</text><text x="128" y="173.972" fill="#D9B8FF" font-family="sans-serif" font-size="14" textLength="48">: string</text><text x="95" y="200.269" fill="#D9B8FF" font-family="sans-serif" font-size="14" font-weight="bold" textLength="90">last_access</text><text x="185" y="200.269" fill="#D9B8FF" font-family="sans-serif" font-size="14" textLength="66">: duration</text><text x="95" y="226.565" fill="#D9B8FF" font-family="sans-serif" font-size="14" font-weight="bold" textLength="90">last_update</text><text x="185" y="226.565" fill="#D9B8FF" font-family="sans-serif" font-size="14" textLength="66">: duration</text><text x="95" y="252.862" fill="#D9B8FF" font-family="sans-serif" font-size="14" font-weight="bold" textLength="48">mtime</text><text x="143" y="252.862" fill="#D9B8FF" font-family="sans-serif" font-size="14" textLength="70">: datetime</text><text x="95" y="279.159" fill="#D9B8FF" font-family="sans-serif" font-size="14" font-weight="bold" textLength="43">name</text><text x="138" y="279.159" fill="#D9B8FF" font-family="sans-serif" font-size="14" textLength="48">: string</text><text x="95" y="305.456" fill="#D9B8FF" font-family="sans-serif" font-size="14" font-weight="bold" textLength="34">tags</text><text x="129" y="305.456" fill="#D9B8FF" font-family="sans-serif" font-size="14" textLength="171">: dictionary[string, string]</text><path fill="none" d="M197.5 700.23v53.48" style="stroke:#ffaf37;stroke-width:2"/><path fill="#FFAF37" d="m197.5 759.71 4-9-4 4-4-4z" style="stroke:#ffaf37;stroke-width:2"/><path fill="none" d="M197.5 496.83v102.34m0-120.34-6 18h12zm0-142.99v102.84m0-120.84-6 18h12z" style="stroke:#ffaf37;stroke-width:2"/></svg>
